X:215
T:Boys of Portaferry, The
T:Sporting Boys, The
T:Pullet, The
R:reel
D:Planxty
Z:id:hn-reel-215
M:C|
K:G
G2~BG AcBA|G2AG GEDE|G2BG ABce|1dBGB cABA:|2 dBGB c2BA||
|:(3Bcd gd edgd|Bdgd (3efe dc|1 (3Bcd gd egfa|
gedB c2BA:|2 (3Bcd ef ~g3a|gedB cABA||
